icons/svg/road_shields/h_green_redtop_square_3_road_shield.svg

<?xml version="1.0" encoding="UTF-8" standalone="no"?>
<!-- Generator: Adobe Illustrator 16.0.4, SVG Export Plug-In . SVG Version: 6.00 Build 0)  -->

<svg
   xmlns:dc="http://purl.org/dc/elements/1.1/"
   xmlns:cc="http://creativecommons.org/ns#"
   xmlns:rdf="http://www.w3.org/1999/02/22-rdf-syntax-ns#"
   xmlns:svg="http://www.w3.org/2000/svg"
   xmlns="http://www.w3.org/2000/svg"
   xmlns:sodipodi="http://sodipodi.sourceforge.net/DTD/sodipodi-0.dtd"
   xmlns:inkscape="http://www.inkscape.org/namespaces/inkscape"
   version="1.1"
   id="Слой_1"
   x="0px"
   y="0px"
   width="32"
   height="24"
   viewBox="0 0 32 24"
   enable-background="new 0 0 17.143 17.17"
   xml:space="preserve"
   inkscape:version="0.91 r13725"
   sodipodi:docname="h_green_redtop_square_3_road_shield.svg"><metadata
     id="metadata13"><rdf:RDF><cc:Work
         rdf:about=""><dc:format>image/svg+xml</dc:format><dc:type
           rdf:resource="http://purl.org/dc/dcmitype/StillImage" /><dc:title></dc:title></cc:Work></rdf:RDF></metadata><defs
     id="defs11" /><sodipodi:namedview
     pagecolor="#ffffff"
     bordercolor="#666666"
     borderopacity="1"
     objecttolerance="10"
     gridtolerance="10"
     guidetolerance="10"
     inkscape:pageopacity="0"
     inkscape:pageshadow="2"
     inkscape:window-width="1920"
     inkscape:window-height="1006"
     id="namedview9"
     showgrid="false"
     inkscape:zoom="11.313709"
     inkscape:cx="16.092945"
     inkscape:cy="14.614777"
     inkscape:window-x="1920"
     inkscape:window-y="0"
     inkscape:window-maximized="1"
     inkscape:current-layer="Слой_1"
     showguides="false" /><path
     sodipodi:type="inkscape:offset"
     inkscape:radius="1.3258251"
     inkscape:original="M 4.5332031 2.9121094 C 3.8049302 2.9121094 3.21875 3.4982896 3.21875 4.2265625 L 3.21875 17.660156 C 3.21875 18.388429 3.8049302 18.974609 4.5332031 18.974609 L 30.466797 18.974609 C 31.19507 18.974609 31.78125 18.388429 31.78125 17.660156 L 31.78125 4.2265625 C 31.78125 3.4982896 31.19507 2.9121094 30.466797 2.9121094 L 4.5332031 2.9121094 z "
     style="color:#000000;clip-rule:evenodd;display:inline;overflow:visible;visibility:visible;opacity:0.83699999;isolation:auto;mix-blend-mode:normal;color-interpolation:sRGB;color-interpolation-filters:linearRGB;solid-color:#000000;solid-opacity:1;fill:#f1eae4;fill-opacity:1;fill-rule:evenodd;stroke:none;stroke-width:1.18836343;stroke-linecap:butt;stroke-linejoin:miter;stroke-miterlimit:4;stroke-dasharray:none;stroke-dashoffset:0;stroke-opacity:1;marker:none;color-rendering:auto;image-rendering:auto;shape-rendering:auto;text-rendering:auto;enable-background:accumulate"
     id="path4330"
     d="m 4.5332031,1.5859375 c -1.4397025,0 -2.640625,1.2009224 -2.640625,2.640625 l 0,13.4335935 c 0,1.439703 1.2009227,2.640625 2.640625,2.640625 l 25.9335939,0 c 1.439702,0 2.640625,-1.200922 2.640625,-2.640625 l 0,-13.4335935 c 0,-1.4397023 -1.200923,-2.640625 -2.640625,-2.640625 l -25.9335939,0 z"
     transform="matrix(1,0,0,1.0920966,-1.5000001,-1.3134139)" /><path
     style="color:#000000;clip-rule:evenodd;display:inline;overflow:visible;visibility:visible;opacity:1;isolation:auto;mix-blend-mode:normal;color-interpolation:sRGB;color-interpolation-filters:linearRGB;solid-color:#000000;solid-opacity:1;fill:#52a02b;fill-opacity:1;fill-rule:evenodd;stroke:none;stroke-width:1;stroke-linecap:butt;stroke-linejoin:miter;stroke-miterlimit:4;stroke-dasharray:none;stroke-dashoffset:0;stroke-opacity:1;marker:none;color-rendering:auto;image-rendering:auto;shape-rendering:auto;text-rendering:auto;enable-background:accumulate"
     d="m 30.28125,4.7671144 -28.5625001,0 0,13.2187506 c 0,0.806419 0.6486585,1.457031 1.4550781,1.457031 l 25.652344,0 c 0.806419,0 1.455078,-0.650612 1.455078,-1.457031 l 0,-13.2187506 z"
     id="path4169"
     inkscape:connector-curvature="0" /><path
     style="color:#000000;clip-rule:evenodd;display:inline;overflow:visible;visibility:visible;opacity:1;isolation:auto;mix-blend-mode:normal;color-interpolation:sRGB;color-interpolation-filters:linearRGB;solid-color:#000000;solid-opacity:1;fill:#dd6a6a;fill-opacity:1;fill-rule:evenodd;stroke:none;stroke-width:1;stroke-linecap:butt;stroke-linejoin:miter;stroke-miterlimit:4;stroke-dasharray:none;stroke-dashoffset:0;stroke-opacity:1;marker:none;color-rendering:auto;image-rendering:auto;shape-rendering:auto;text-rendering:auto;enable-background:accumulate"
     d="m 3.173828,1.6557863 c -0.8064196,0 -1.4550781,0.6486585 -1.4550781,1.4550781 l 0,1.65625 28.5625001,0 0,-1.65625 c 0,-0.8064196 -0.648659,-1.4550781 -1.455078,-1.4550781 l -25.652344,0 z"
     id="rect4176-9"
     inkscape:connector-curvature="0" /></svg>

<svg width="32" height="24" viewBox="0 0 32 24" fill="none" xmlns="http://www.w3.org/2000/svg">
<path opacity="0.837" fill-rule="evenodd" clip-rule="evenodd" d="M3.0332 0.418579C1.5935 0.418579 0.392578 1.7301 0.392578 3.3024V17.9732C0.392578 19.5455 1.5935 20.857 3.0332 20.857H28.9668C30.4065 20.857 31.6074 19.5455 31.6074 17.9732V3.3024C31.6074 1.7301 30.4065 0.418579 28.9668 0.418579H3.0332V0.418579Z" fill="#F1EAE4"/>
<path fill-rule="evenodd" clip-rule="evenodd" d="M30.2812 4.76709H1.71875V17.9858C1.71875 18.7923 2.36741 19.4429 3.17383 19.4429H28.8262C29.6326 19.4429 30.2812 18.7923 30.2812 17.9858V4.76709V4.76709Z" fill="#52A02B"/>
<path fill-rule="evenodd" clip-rule="evenodd" d="M3.17383 1.65576C2.36741 1.65576 1.71875 2.30442 1.71875 3.11084V4.76709H30.2812V3.11084C30.2812 2.30442 29.6326 1.65576 28.8262 1.65576H3.17383V1.65576Z" fill="#DD6A6A"/>
</svg>
